-----BEGIN PGP PUBLIC KEY BLOCK-----

mQINBGSUYKABEADAnOvzO6D3zUOfBn69KSM3Pl9x97CdpvnZdHIRJX1aB/0j5aLT
15OPzovnkOplBpFFrOc7S50TApo70LS+ESdz55lw2k1n9xQ5BzlI3b02POeyOG8+
9HyUX8Mtia0IRDVze5ps8c1iRHLoaVBtthTpoQYCDPDYldjmqhTKQiPRTDTLuvk6
COuW3s6+xhERucBXKlHiUwKfd9cjO/JgOZxeT+bG3x4ppU4sJ4CgfT4No/19QAQT
VikOsxxg00r0LWrJDAjGcNFvWP2Av3n+Xkirmmz5hJknyrM4+Dxw9FYlktv1nALT
W0NzO7vwe6ZviR6yO6/R7+okMkHk+xphLicwaqVWzxyWLbmAeqe5sPHnXCbmJGm8
uXjy+mhS/QzSaHWOjDgLgB8qpf7X+JP7KgCgMpp1h3TFaTMV2dUzS7/Dh4JF6LEt
Gn+UVMcJHtgGRhEsZyUgbEqCaal4cI0RRqU4/BMVT6LTgFKWR2dhOzLvpirsa08z
/v1udq2AMybejVWwaGE95gUHNxsdSg45JSf1EcE9M58eZLMSQ2VGNfW/7q2rwGLc
dxXew5YjugIOdyj0/1cCCBANKjohROw0Z8w4EHxPM1huI9T5GYavozqC9s0b1Nmn
iyN/xwDXhUF57h+RXor2HUTlIMwIR4Px1WPdeAgnW8hX9hbFSL5mmyPyRQARAQAB
tCVDb25ub3IgU2NodWxlciA8Y2pzYmV2ZXJseUBnbWFpbC5jb20+iQJRBBMBCAA7
AhsjBQsJCAcCAiICBhUKCQgLAgQWAgMBAh4HAheAFiEE/Vwx2oIJEtX0SuuEh9gD
icGNwwQFAmX+TPQACgkQh9gDicGNwwSThA//bj3YuRpSHkpATFzYDtle5qIz60wJ
nSDvejNb324GJcH4YG4kh19QvmCAkhmkc3ytKZOoxPlg1C8pmuRBm596fk4fRQro
saBL/3OoM969XB0gNZ9JCNB9atu2dIljlyWUojr7pled7LA/fXg2/UXqzXnG/dVu
jYO16JPA1RYEC3bh2ryMfAjFH7z/mAT74yFpAw/g33iLHM2bbRC56VyKwhXyk2WI
OlIispgFpVy6FW3pcxaeXM7VIHwrfdsg5wsGGPjvFlAENgGNvLKX68cF2Nb9aenM
MqasKPx98he67nfuuMdFORjhQlEUH11gecWNKmR419oBRXhvsNOZStN7Lr/PN3Yj
sY3IU7BgjfUh88niMcxDoLvYemXJM/eYZ1/5snZv8Wtf1QKA7z4lVIZ6TtTl+YT5
eK/RZ+6dC9++T+4+Hg258FqCX7Rd/ZX5myhM5CSWS/haakjp6geLvuqESbXiRPk1
vx/rCOFFyZsf/Iy/JJ9LeC4s/Bp6tuyECnbqzROhyHx0H/00hfI+uU5+s3RTjNa8
H61EO+FM/a1wuIrGa8znhh1IC76114kHc4ysIb7tH+WsGySnPdiBRvDyqTcg5jjS
Xk83CHLCdIi0Wd5KYvqZU4wceN9f6xzpnJIPSg8hnoHRXRkDFzLjGv6CjI17HBLL
HDM9ZdEdWCbagfSJAlcEEwEIAEEWIQT9XDHaggkS1fRK64SH2AOJwY3DBAUCZJRg
oAIbIwUJA8PH4AULCQgHAgIiAgYVCgkICwIEFgIDAQIeBwIXgAAKCRCH2AOJwY3D
BLf3D/4yb73xpAMKl+3NWxoL8VNKc42Qm2OioUrssAU3Er6G0wIR0TcTg3SdC7m8
9GwFTvGZvmwd7PA7hEzvUJkH+YO+aoeyxOimLHA7zbITY/3FEObrBYhOcVz4XH9B
iGbR69LhQT3NVZ7dCGIriRAoeuUhcu0LFgGv6E0DRo1udTipAf6sYaWDtPM8U8wJ
J3d8JL8zgRn8fqumrXBwblh7JUr1D+Svqp5gb/HI+cOsMJexD/mhsi1U7JNWeTRe
XFtYAWeNVmdEko8HjKTNxi8MEjmy0nceDhiizJWRM6w5WVWcCh4e2CPbjCHPQ7RW
1bl8uvHe7p3qCiVEa06nragVrz0B9uoMpgosx8jqYVB3azctOq4S60y+fb9x7qSu
xt02boZx9dCq5HJVngHyRmf18H6itt8kRgbdrx6SO3D6tAvSbr9lYaLK/DhQUooj
d3m7mFhTVOIMVVYLEhcNvjxsXK3ksHs3mqnZIc9OVcRAk5hJ3iqUcglq8At/KwKi
L9HTj5AK9XDIUAISXaaEW9gTVt9MK6Ke3SoQsk2znxVG3poR5d2NEGLkmNL3TtH4
xByQbybZrChRVMZdC4ZW/RDKyuc1LiFtZSz5eWok5g8lmdJRQEuUAKGVz6nM2PzK
hAPy/X6NBSPT+bjTOQ2bxnjz1KCi6h25IP3bG785XtcKCXD1NrkCDQRklGCgARAA
vEJ3tOuABHkos+AQjD6NmfzhzE2AM/nJR+a+kYBd5ljOeIUkznNN23Am6HJ8IO87
QsWm/0TXbAF3GEcOSrqspJ0NM6KcerRSwbi2BeyGexkEz3PRZyIZyAu1rA6DKAOi
c00+fZ+IxD5V6EZATslVefGbVa3wIRLzsI9Uxqhm3Th/Ru+e+ZPDEl/ZYGgeD2P5
3ZwuadpCGMHfgkOONFyCHXW+nqOVJa+uvb8J9BsI/1aUwSAgwGSqp8gUKzl4bCjs
KJpC2YV20n1BvcmBenp3h9FSHyzuoVkkm4tAtn7yJroYwT2YwPoJpl9nJMdOSnqa
DXN+cmiwnuu7DspdDYZHwyVaE2EFou4TcdAK4VqXlKQ20SrHqf/vVyd2LNnizoeG
ekiFBX4uBRk0YKWFmeSYXzi+yMqlkOWU/2qsfGAYEUUhLPVWitiokg3aXcRtTpVQ
KKRijOP3ruFaYir9JCkIj8ygiCwaycGUsO1eq2nfdCaEH7X39Iubrzcj3/cGhOB4
ZQhz4U6d8b7c8thC1C96CzieKibSfl/4559Zj6gSlwexO1KVlLdRjBQxmpeP98q8
eizSoiAvFNV2cqh4e7vg18n0nHNO12AdmqUx0DoBFQ2rUdzzw5zneFgYwzjljV+a
PhkocKX9AqTSp1ExGKCyNya1y2r05uppv7arpmJQZHkAEQEAAYkCNgQYAQgAIAIb
DBYhBP1cMdqCCRLV9ErrhIfYA4nBjcMEBQJl/kz0AAoJEIfYA4nBjcMEno0P/At0
LTo6D8OQQQflpu0dx+mz5vmW8cwcB5aglfQVCo78/HR1zV5wWymby/bdCOAfWZbY
EzPMEKKOWX0Moo4sTfVCrC/wD7FvkrNNFc1K39inzzTucAo1mv82pqaT+m2kPLEb
UXh66A7zUaRG8RayVa1F/DwB43i96hCudjsCX6rccDiAOmpOQJQ/3FVzhEPR6z3r
soc8eICZULw8hom2U4wYrfa8+C97MC8zZ/apqfuDHTmbc+f6gAV5Knj8v7RwqWzk
x96BsP1Y+54TtPLx4bG6/xA4nViPBQaLqtTv1QCFBv8uy+GmLiE2d43mjpdHiB3r
+BNxn60OM5/N3ZGLdrbWp77/yRhvTzwA2u9aqByKPgzD1/bDjusncaPZCvNqIBYJ
jiQI+OhL9+K9mxSl/pP/CaC32cp9teA+A0XoRMYLWJFrh0wBs1aJ9yhO5lLmGxCN
dZC98OL2XBAjrad8HzD+4dqyFdvCQYP7HPfAqGUnoXRy1g0AB6dU1z+nFG0YlMG/
ZcwC/0cl4E+jS7MtR9CPeO8unNTkbsIqCyVSyU+2SBeIHpSwC7FuK+kRTtLfo/NI
fFOh4Dau/pNF7ZlSS7HfhqeHhVaGqNBWE49EVGm5B0zvld1W1FSDmljbMbFeg1Qz
+AHdfew3wyfptt5SaHR1JGp8mgcwLkfb+mPhXjA6
=uPxx
-----END PGP PUBLIC KEY BLOCK-----
